src/svg/icon-role.svg

<svg width="20" height="20" viewBox="0 0 20 20" fill="none" xmlns="http://www.w3.org/2000/svg">
<path d="M19 16.0008H17V13.0014C17 12.7363 16.8946 12.482 16.7071 12.2945C16.5196 12.107 16.2652 12.0016 16 12.0016H11V9.2922L12.13 9.88208C12.2948 9.96827 12.4804 10.0068 12.6658 9.99335C12.8513 9.97991 13.0294 9.91501 13.18 9.80595C13.3307 9.6969 13.4479 9.54801 13.5185 9.37601C13.5892 9.20401 13.6105 9.01572 13.58 8.8323L13.18 6.46278L14.9 4.77313C15.0303 4.64594 15.1233 4.4856 15.1692 4.30941C15.215 4.13321 15.2118 3.94786 15.16 3.77333C15.102 3.59565 14.9954 3.43776 14.8522 3.31759C14.7091 3.19742 14.5351 3.11978 14.35 3.09347L12 2.72355L10.9 0.563994C10.8181 0.394958 10.6903 0.2524 10.5311 0.152652C10.3719 0.0529043 10.1879 0 10 0C9.81214 0 9.62809 0.0529043 9.46891 0.152652C9.30974 0.2524 9.18189 0.394958 9.1 0.563994L8 2.72355L5.61 3.07348C5.42492 3.09978 5.25092 3.17742 5.10775 3.29759C4.96458 3.41776 4.85796 3.57565 4.8 3.75334C4.74819 3.92786 4.74502 4.11322 4.79084 4.28941C4.83666 4.4656 4.92973 4.62594 5.06 4.75313L6.82 6.46278L6.42 8.8323C6.38952 9.01572 6.4108 9.20401 6.48145 9.37601C6.5521 9.54801 6.66933 9.6969 6.81996 9.80595C6.9706 9.91501 7.14866 9.97991 7.33415 9.99335C7.51964 10.0068 7.70521 9.96827 7.87 9.88208L9 9.2922V12.0016H4C3.73478 12.0016 3.48043 12.107 3.29289 12.2945C3.10536 12.482 3 12.7363 3 13.0014V16.0008H1C0.734784 16.0008 0.48043 16.1062 0.292893 16.2937C0.105357 16.4812 0 16.7355 0 17.0006V19.0002C0 19.2654 0.105357 19.5197 0.292893 19.7072C0.48043 19.8947 0.734784 20 1 20C1.26522 20 1.51957 19.8947 1.70711 19.7072C1.89464 19.5197 2 19.2654 2 19.0002V18.0004H6V19.0002C6 19.2654 6.10536 19.5197 6.29289 19.7072C6.48043 19.8947 6.73478 20 7 20C7.26522 20 7.51957 19.8947 7.70711 19.7072C7.89464 19.5197 8 19.2654 8 19.0002V17.0006C8 16.7355 7.89464 16.4812 7.70711 16.2937C7.51957 16.1062 7.26522 16.0008 7 16.0008H5V14.0012H15V16.0008H13C12.7348 16.0008 12.4804 16.1062 12.2929 16.2937C12.1054 16.4812 12 16.7355 12 17.0006V19.0002C12 19.2654 12.1054 19.5197 12.2929 19.7072C12.4804 19.8947 12.7348 20 13 20C13.2652 20 13.5196 19.8947 13.7071 19.7072C13.8946 19.5197 14 19.2654 14 19.0002V18.0004H18V19.0002C18 19.2654 18.1054 19.5197 18.2929 19.7072C18.4804 19.8947 18.7348 20 19 20C19.2652 20 19.5196 19.8947 19.7071 19.7072C19.8946 19.5197 20 19.2654 20 19.0002V17.0006C20 16.7355 19.8946 16.4812 19.7071 16.2937C19.5196 16.1062 19.2652 16.0008 19 16.0008ZM10 6.63275C9.83586 6.63357 9.67444 6.67477 9.53 6.75272L8.73 7.17264L8.88 6.27282C8.90624 6.11366 8.89357 5.95051 8.84307 5.7973C8.79257 5.6441 8.70574 5.50538 8.59 5.393L7.94 4.75313L8.84 4.62316C9.00101 4.60165 9.15436 4.54125 9.28678 4.44718C9.4192 4.35311 9.52671 4.22821 9.6 4.08327L10 3.26344L10.4 4.08327C10.4733 4.22821 10.5808 4.35311 10.7132 4.44718C10.8456 4.54125 10.999 4.60165 11.16 4.62316L12.06 4.75313L11.41 5.393C11.2943 5.50538 11.2074 5.6441 11.1569 5.7973C11.1064 5.95051 11.0938 6.11366 11.12 6.27282L11.27 7.17264L10.47 6.75272C10.3256 6.67477 10.1641 6.63357 10 6.63275Z" fill="currentColor"/>
</svg>

<svg xmlns="http://www.w3.org/2000/svg" width="20" height="20" fill="none" viewBox="0 0 20 20"><path fill="currentColor" d="M19 16h-2v-2.999a1 1 0 0 0-1-1h-5V9.293l1.13.59a1 1 0 0 0 1.45-1.05l-.4-2.37 1.72-1.689a1 1 0 0 0 .26-1 1 1 0 0 0-.81-.68L12 2.723 10.9.565a1 1 0 0 0-1.8 0L8 2.724l-2.39.35a1 1 0 0 0-.81.68 1 1 0 0 0 .26 1l1.76 1.709-.4 2.37a1 1 0 0 0 1.45 1.05L9 9.292v2.709H4a1 1 0 0 0-1 1V16H1a1 1 0 0 0-1 1v2a1 1 0 1 0 2 0v-1h4v1a1 1 0 1 0 2 0v-2a1 1 0 0 0-1-1H5v-2h10v2h-2a1 1 0 0 0-1 1v2a1 1 0 0 0 2 0v-1h4v1a1 1 0 0 0 2 0v-2a1 1 0 0 0-1-1m-9-9.367a1 1 0 0 0-.47.12l-.8.42.15-.9a1 1 0 0 0-.29-.88l-.65-.64.9-.13a1 1 0 0 0 .76-.54l.4-.82.4.82a1 1 0 0 0 .76.54l.9.13-.65.64a1 1 0 0 0-.29.88l.15.9-.8-.42a1 1 0 0 0-.47-.12"/></svg>
